X:072occ
T:John Kelly
C:Turlough O'Carolan (1670 - 1738)
C:ALLEGRO GRAZIOSO
B:Complete Works Of Turlough O'Carolan (PB - no pub - no date - fleamarket find)
Z:to Noteworthy and MIDI by Chris Gilb; Translation to ABC and GIF copy by Vince Brennan
N:Transposed from Bb
I:abc2nwc
M:6/8
L:1/8
K:D
d2d ded|c/2e3/2 zefg|{g}fed f/2a3/2 z|{a}gfe g/2b3/2 z|
a2f {a}gfe|dcB ABc|dFA dFA|B3B2c||
{df}aba {a}gfe|d2A d2A|bag fed|c/2e3/2 ze3|
af/2g/2a bg/2a/2b|af/2g/2a geg|{g}fed {d}cAc|d3d2z|]

